X: 21214
P: Le jour du plaisir.
M: 6/8
L: 1/8
K: G
ded dfg | a3- aBc | ded dga | b3- b2b |\
baa abc' | d'ff fg^g | aAA Afe | d3 "D.C."Tc3 !segno!|]
K: C=f


